X: 3412
T: Berwick Billy
R: three-two
M: 3/2
K: Amajor
|:e2A2 A2e2 fedc|e2A2 A2e2 c2a2|e2A2 A2e2 fedc|d2B2 B2c2 d2f2:|
|:a3g a2A2 cdec|a3g a2A2 c2e2|a3g a2A2 cdec|f2a2 a2B2 d2f2:|
|:e2e2 fedc fedc|e2e2 fedc e2a2|e2e2 fedc fedc|d2B2 B2c2 d2f2:|
|:a3g a2A2 cdec|a3g a2A2 c2e2|a3g a2a2 agfe|f2a2 a2B2 d2f2:|

